X:1
T:Si Bheag Si Mhor
C:Turlough O'Carolan (c.1720)
S:Public domain (pre-1929 US; O'Carolan 1670-1738)
M:3/4
L:1/8
Q:1/4=76
K:G
H:O'Carolan's most famous air. Arranged in G major for D Irish flute.
H:Range G4-G5 (G, A, B, c, d, e, f#, g in ABC = G4-G5). Cross-fingering for F# needed.
B4 d2 | g4 fe | d4 B2 | A4 GA |
B4 d2 | g4 ed | B6 | B6 |
d4 ef | g4 ag | f4 ed | e6 |
d4 ef | g4 fe | d4 B2 | G6 |]
